www/assets/icons/timer_outline.svg

<svg xmlns="http://www.w3.org/2000/svg" width="24" height="24" viewBox="0 0 24 24" fill='currentColor'><path d="M15 1.5H9v2h6zm-4 13h2v-6h-2zm8.03-6.61 1.42-1.42c-.43-.51-.9-.99-1.41-1.41l-1.42 1.42A8.96 8.96 0 0 0 12 4.5a9 9 0 0 0-9 9c0 4.97 4.02 9 9 9a8.994 8.994 0 0 0 7.03-14.61M12 20.5c-3.87 0-7-3.13-7-7s3.13-7 7-7 7 3.13 7 7-3.13 7-7 7"/></svg>

<svg width="24" height="24" viewBox="0 0 24 24" xmlns="http://www.w3.org/2000/svg" fill='currentColor'><path d="M15 1.5H9V3.5H15V1.5ZM11 14.5H13V8.5H11V14.5ZM19.03 7.89L20.45 6.47C20.02 5.96 19.55 5.48 19.04 5.06L17.62 6.48C16.07 5.24 14.12 4.5 12 4.5C7.03 4.5 3 8.53 3 13.5C3 18.47 7.02 22.5 12 22.5C16.98 22.5 21 18.47 21 13.5C21 11.38 20.26 9.43 19.03 7.89ZM12 20.5C8.13 20.5 5 17.37 5 13.5C5 9.63 8.13 6.5 12 6.5C15.87 6.5 19 9.63 19 13.5C19 17.37 15.87 20.5 12 20.5Z"/></svg>
